X: 17709
T: Homage To Rooney
R: reel
M: 4/4
K: Emajor
E3F GBeg|fbge fcc2|ecBG EFGB|BGFG ECC2|
CB,G,B, EFGF|FEGB cegf|ecBG FBGF|1 FECB, EBGF:|2 FECB, Ebgf||
e3c cBGc|B3g fegf|egfe cBGB|
[1 cGBG GFF2|egfe cBGc|Bceg fbgf|ecBG FBGF|FECF E2gf:|
[2 cGBG F3E|CB,G,B, EFGF|FEGB cegf|ecBG FBGF|FECF E2GF||

